assets/Last track button/Flat/last_track_button_flat.svg

<svg width="32" height="32" viewBox="0 0 32 32" fill="none" xmlns="http://www.w3.org/2000/svg">
<path d="M2 6C2 3.79086 3.79086 2 6 2H26C28.2091 2 30 3.79086 30 6V26C30 28.2091 28.2091 30 26 30H6C3.79086 30 2 28.2091 2 26V6Z" fill="#00A6ED"/>
<path d="M9 15.0378V9.50002C9 9.22388 8.77614 9.00002 8.5 9.00002H7.5C7.22386 9.00002 7 9.22388 7 9.50002V22.5C7 22.7762 7.22386 23 7.5 23H8.5C8.77614 23 9 22.7762 9 22.5V16.9623L15.3066 23.0308C15.9419 23.6422 17 23.1919 17 22.3103V16.9623L23.3066 23.0308C23.9419 23.6422 25 23.1919 25 22.3103V9.6898C25 8.80814 23.9419 8.3579 23.3066 8.96922L17 15.0378V9.6898C17 8.80814 15.9419 8.3579 15.3066 8.96922L9 15.0378Z" fill="white"/>
</svg>

<svg xmlns="http://www.w3.org/2000/svg" width="32" height="32" fill="none"><path fill="#00A6ED" d="M2 6a4 4 0 0 1 4-4h20a4 4 0 0 1 4 4v20a4 4 0 0 1-4 4H6a4 4 0 0 1-4-4V6Z"/><path fill="#fff" d="M9 15.038V9.5a.5.5 0 0 0-.5-.5h-1a.5.5 0 0 0-.5.5v13a.5.5 0 0 0 .5.5h1a.5.5 0 0 0 .5-.5v-5.538l6.307 6.069c.635.611 1.693.16 1.693-.72v-5.349l6.307 6.069c.635.611 1.693.16 1.693-.72V9.69c0-.882-1.058-1.332-1.693-.72L17 15.037V9.69c0-.882-1.058-1.332-1.693-.72L9 15.037Z"/></svg>
